Automatic/src/svg/Nichibutsu - My Vision-content.svg

<svg xmlns="http://www.w3.org/2000/svg" xml:space="preserve" width="277.333" height="314.141"><defs><clipPath id="a" clipPathUnits="userSpaceOnUse"><path d="M0 256h256V0H0Z"/></clipPath></defs><path d="M0 0h-168v-68H0v64zm-4-64h-160v60H-4Z" style="fill:#fff;fill-opacity:1;fill-rule:nonzero;stroke:none" transform="matrix(1.33333 0 0 -1.33333 250.667 53.333)"/><path d="M204 200H52v-52h152zm-4-48H56v44h144z" style="fill:#fff;fill-opacity:1;fill-rule:nonzero;stroke:none" transform="matrix(1.33333 0 0 -1.33333 -32 330.667)"/><path d="M0 0h-68v-16H0v12zm-4-12h-60v8h60z" style="fill:#fff;fill-opacity:1;fill-rule:nonzero;stroke:none" transform="matrix(1.33333 0 0 -1.33333 117.333 154.667)"/><path d="M0 0h-68v-16H0v12zm-4-12h-60v8h60z" style="fill:#fff;fill-opacity:1;fill-rule:nonzero;stroke:none" transform="matrix(1.33333 0 0 -1.33333 117.333 176)"/><path d="M0 0h-68v-16H0v12zm-4-12h-60v8h60z" style="fill:#fff;fill-opacity:1;fill-rule:nonzero;stroke:none" transform="matrix(1.33333 0 0 -1.33333 117.333 197.333)"/><path d="M0 0h-68v-16H0v12zm-4-12h-60v8h60z" style="fill:#fff;fill-opacity:1;fill-rule:nonzero;stroke:none" transform="matrix(1.33333 0 0 -1.33333 117.333 218.667)"/><path d="M0 0h-68v-16H0v12zm-4-12h-60v8h60z" style="fill:#fff;fill-opacity:1;fill-rule:nonzero;stroke:none" transform="matrix(1.33333 0 0 -1.33333 117.333 240)"/><path d="M0 0h-68v-16H0v12zm-4-12h-60v8h60z" style="fill:#fff;fill-opacity:1;fill-rule:nonzero;stroke:none" transform="matrix(1.33333 0 0 -1.33333 250.667 154.667)"/><path d="M0 0h-68v-16H0v12zm-4-12h-60v8h60z" style="fill:#fff;fill-opacity:1;fill-rule:nonzero;stroke:none" transform="matrix(1.33333 0 0 -1.33333 250.667 176)"/><path d="M0 0h-68v-16H0v12zm-4-12h-60v8h60z" style="fill:#fff;fill-opacity:1;fill-rule:nonzero;stroke:none" transform="matrix(1.33333 0 0 -1.33333 250.667 197.333)"/><path d="M0 0h-68v-16H0v12zm-4-12h-60v8h60z" style="fill:#fff;fill-opacity:1;fill-rule:nonzero;stroke:none" transform="matrix(1.33333 0 0 -1.33333 250.667 218.667)"/><path d="M0 0h-68v-16H0v12zm-4-12h-60v8h60z" style="fill:#fff;fill-opacity:1;fill-rule:nonzero;stroke:none" transform="matrix(1.33333 0 0 -1.33333 250.667 240)"/><g clip-path="url(#a)" transform="matrix(1.33333 0 0 -1.33333 -32 330.667)"><path d="M0 0a4 4 0 0 0-4-4h-12v-4h12v-156h-192V-8h12v4h-12a4 4 0 0 0-4 4v60.039A3.96 3.96 0 0 0-196.039 64H-3.961A3.96 3.96 0 0 0 0 60.039Zm-3.961 68h-192.078c-4.39 0-7.961-3.571-7.961-7.961V0c0-3.113 1.792-5.81 4.394-7.132v-160.474H-.394V-7.132C2.208-5.81 4-3.113 4 0v60.039C4 64.429.429 68-3.961 68" style="fill:#fff;fill-opacity:1;fill-rule:nonzero;stroke:none" transform="translate(228 180)"/></g></svg>

<?xml version="1.0" encoding="UTF-8" standalone="no"?>
<svg
   xmlns:dc="http://purl.org/dc/elements/1.1/"
   xmlns:cc="http://creativecommons.org/ns#"
   xmlns:rdf="http://www.w3.org/1999/02/22-rdf-syntax-ns#"
   xmlns:svg="http://www.w3.org/2000/svg"
   xmlns="http://www.w3.org/2000/svg"
   viewBox="0 0 277.33331 314.14132"
   height="314.14133"
   width="277.33331"
   xml:space="preserve"
   id="svg2"
   version="1.1"><metadata
     id="metadata8"><rdf:RDF><cc:Work
         rdf:about=""><dc:format>image/svg+xml</dc:format><dc:type
           rdf:resource="http://purl.org/dc/dcmitype/StillImage" /></cc:Work></rdf:RDF></metadata><defs
     id="defs6"><clipPath
       id="clipPath64"
       clipPathUnits="userSpaceOnUse"><path
         id="path62"
         d="M 0,256 H 256 V 0 H 0 Z" /></clipPath></defs><g
     transform="matrix(1.3333333,0,0,-1.3333333,-31.999999,330.66666)"
     id="g10"><g
       transform="translate(212,208)"
       id="g12"><path
         id="path14"
         style="fill:#ffffff;fill-opacity:1;fill-rule:nonzero;stroke:none"
         d="m 0,0 h -4 -160 -4 v -4 -60 -4 h 4 160 4 v 4 60 z M -4,-64 H -164 V -4 H -4 Z" /></g><path
       id="path16"
       style="fill:#ffffff;fill-opacity:1;fill-rule:nonzero;stroke:none"
       d="M 204,200 H 52 v -52 h 152 z m -4,-48 H 56 v 44 h 144 z" /><g
       transform="translate(112,132)"
       id="g18"><path
         id="path20"
         style="fill:#ffffff;fill-opacity:1;fill-rule:nonzero;stroke:none"
         d="m 0,0 h -4 -60 -4 v -4 -8 -4 h 4 60 4 v 4 8 z m -4,-12 h -60 v 8 h 60 z" /></g><g
       transform="translate(112,116)"
       id="g22"><path
         id="path24"
         style="fill:#ffffff;fill-opacity:1;fill-rule:nonzero;stroke:none"
         d="m 0,0 h -4 -60 -4 v -4 -8 -4 h 4 60 4 v 4 8 z m -4,-12 h -60 v 8 h 60 z" /></g><g
       transform="translate(112,100)"
       id="g26"><path
         id="path28"
         style="fill:#ffffff;fill-opacity:1;fill-rule:nonzero;stroke:none"
         d="m 0,0 h -4 -60 -4 v -4 -8 -4 h 4 60 4 v 4 8 z m -4,-12 h -60 v 8 h 60 z" /></g><g
       transform="translate(112,84)"
       id="g30"><path
         id="path32"
         style="fill:#ffffff;fill-opacity:1;fill-rule:nonzero;stroke:none"
         d="m 0,0 h -4 -60 -4 v -4 -8 -4 h 4 60 4 v 4 8 z m -4,-12 h -60 v 8 h 60 z" /></g><g
       transform="translate(112,68)"
       id="g34"><path
         id="path36"
         style="fill:#ffffff;fill-opacity:1;fill-rule:nonzero;stroke:none"
         d="m 0,0 h -4 -60 -4 v -4 -8 -4 h 4 60 4 v 4 8 z m -4,-12 h -60 v 8 h 60 z" /></g><g
       transform="translate(212,132)"
       id="g38"><path
         id="path40"
         style="fill:#ffffff;fill-opacity:1;fill-rule:nonzero;stroke:none"
         d="m 0,0 h -4 -60 -4 v -4 -8 -4 h 4 60 4 v 4 8 z m -4,-12 h -60 v 8 h 60 z" /></g><g
       transform="translate(212,116)"
       id="g42"><path
         id="path44"
         style="fill:#ffffff;fill-opacity:1;fill-rule:nonzero;stroke:none"
         d="m 0,0 h -4 -60 -4 v -4 -8 -4 h 4 60 4 v 4 8 z m -4,-12 h -60 v 8 h 60 z" /></g><g
       transform="translate(212,100)"
       id="g46"><path
         id="path48"
         style="fill:#ffffff;fill-opacity:1;fill-rule:nonzero;stroke:none"
         d="m 0,0 h -4 -60 -4 v -4 -8 -4 h 4 60 4 v 4 8 z m -4,-12 h -60 v 8 h 60 z" /></g><g
       transform="translate(212,84)"
       id="g50"><path
         id="path52"
         style="fill:#ffffff;fill-opacity:1;fill-rule:nonzero;stroke:none"
         d="m 0,0 h -4 -60 -4 v -4 -8 -4 h 4 60 4 v 4 8 z m -4,-12 h -60 v 8 h 60 z" /></g><g
       transform="translate(212,68)"
       id="g54"><path
         id="path56"
         style="fill:#ffffff;fill-opacity:1;fill-rule:nonzero;stroke:none"
         d="m 0,0 h -4 -60 -4 v -4 -8 -4 h 4 60 4 v 4 8 z m -4,-12 h -60 v 8 h 60 z" /></g><g
       id="g58"><g
         clip-path="url(#clipPath64)"
         id="g60"><g
           transform="translate(228,180)"
           id="g66"><path
             id="path68"
             style="fill:#ffffff;fill-opacity:1;fill-rule:nonzero;stroke:none"
             d="M 0,0 C 0,-2.209 -1.791,-4 -4,-4 H -16 V -8 H -4 V -164 H -196 V -8 h 12 v 4 h -12 c -2.209,0 -4,1.791 -4,4 v 60.039 c 0,2.188 1.773,3.961 3.961,3.961 H -3.961 C -1.773,64 0,62.227 0,60.039 Z M -3.961,68 H -196.039 C -200.429,68 -204,64.429 -204,60.039 V 0 c 0,-3.113 1.792,-5.81 4.394,-7.132 V -8 -164 -167.606 H -196 -4 -0.394 V -164 -8 -7.132 C 2.208,-5.81 4,-3.113 4,0 V 60.039 C 4,64.429 0.429,68 -3.961,68" /></g></g></g></g></svg>
